X:1225
T:"Toss The Feathers" (2nd Setting)  (reel)     1225
C:after Mr. Ennis
B:O'Neill's Music Of Ireland (The 1850) Lyon & Healy, Chicago, 1903 edition
Z:FROM O'NEILL'S TO NOTEWORTHY, FROM NOTEWORTHY TO ABC, MIDI AND .TXT BY VINCE
BRENNAN July 2003 (HTTP://WWW.SOSYOURMOM.COM)
I:abc2nwc
M:C|
L:1/8
K:D
D2 (3FED AD  (3FED|D2(GF) EF G2|A2(AG) A2(Bc)|dfed {d}cAGE|
D2 (3FED AD  (3FED|D2(GF) EF G2|A2(de) f3/2d/2  (3.d.d.d|cAGE FD D2||
Ad({e}dc) d2(cd)|e3/2d/2  (3.d.d.d eddc|eaag eaag|e3/2d/2  (3ddd (ed) d2|
eaaf gbag|fgef dcAG|A2(AG) A2 (3ABc|dfed cAG"^D. C."E|]




